X:1
T:Tuggerman’s Jig
C:Don Messer
S:https://tunearch.org/wiki/Tuggermen%27s_Jig
B:Don Messer "Backwoods melodies with Don Messer and his Islanders" 1949
%D:1949
M:6/8
L:1/8
R:Jig
S:Grimshaw (1958)
B:Bayard – Dance to the Fiddle, March to the Fife (1981, No. 571, p. 509)
Z:AK/Fiddler’s Companion
K:D
A,- |\
A,2D F2A | dcB A2 F/E/ | DFA dcB | ABA E2A,- |
A,2D F2A | dcB A2F |1 DFA dcd | AFD D2 :|2 EFG ABc | dAF D2 ||
K:A
H[Ae] |\
c3 efe | c2e Ace | a2a gee | bge bge |
bge efe | c2e Ace | a3 gfe | dcB A2 |]
